src/xmb/retrosystem/GCE - Vectrex.svg

<svg xmlns="http://www.w3.org/2000/svg" xml:space="preserve" width="256" height="256" viewBox="0 0 341.333 341.333"><path d="M0 0h224.516c2.067 0 3.742-1.7 3.742-3.798v-83.547c0-2.098-1.675-3.798-3.742-3.798H0c-2.067 0-3.742 1.7-3.742 3.798v83.547C-3.742-1.7-2.067 0 0 0" style="fill:#191919;fill-opacity:1;fill-rule:nonzero;stroke:none" transform="matrix(1.33333 0 0 -1.33333 20.99 109.905)"/><g style="fill:#4d4d4d"><path d="M0 0h208.552c2.057 0 3.724-1.686 3.724-3.765v-56.47c0-2.079-1.667-3.765-3.724-3.765H0c-2.057 0-3.724 1.686-3.724 3.765v56.47C-3.724-1.686-2.057 0 0 0" style="fill:#4d4d4d;fill-opacity:1;fill-rule:nonzero;stroke:none" transform="matrix(1.33333 0 0 -1.33333 31.632 128)"/></g><path d="M314.667 197.333h-288V192h288Z" style="fill:#999;fill-opacity:1;fill-rule:nonzero;stroke:none;stroke-width:1.33333325"/><path d="M314.667 202.667h-288v-5.334h288Z" style="fill:gray;fill-opacity:1;fill-rule:nonzero;stroke:none;stroke-width:1.33333325"/><path d="M0 0h-24v-17.821h.022c-.001-.061-.022-.118-.022-.179 0-5.523 5.373-10 12-10S0-23.523 0-18c0 .061-.02.118-.022.179H0Z" style="fill:#0d0d0d;fill-opacity:1;fill-rule:nonzero;stroke:none" transform="matrix(1.33333 0 0 -1.33333 197.333 112)"/><path d="M0 0c0-5.523-4.477-10-10-10S-20-5.523-20 0s4.477 10 10 10S0 5.523 0 0" style="fill:#191919;fill-opacity:1;fill-rule:nonzero;stroke:none" transform="matrix(1.33333 0 0 -1.33333 286.968 168.172)"/><path d="M0 0c0-11.046-8.954-20-20-20s-20 8.954-20 20 8.954 20 20 20S0 11.046 0 0" style="fill:#191919;fill-opacity:1;fill-rule:nonzero;stroke:none" transform="matrix(1.33333 0 0 -1.33333 120 168.172)"/><g style="fill:#4d4d4d"><path d="M0 0c0-7.732-6.268-14-14-14S-28-7.732-28 0s6.268 14 14 14S0 7.732 0 0" style="fill:#4d4d4d;fill-opacity:1;fill-rule:nonzero;stroke:none" transform="matrix(1.33333 0 0 -1.33333 112 168)"/></g><path d="M0 0c0-5.523-4.477-10-10-10S-20-5.523-20 0s4.477 10 10 10S0 5.523 0 0" style="fill:#191919;fill-opacity:1;fill-rule:nonzero;stroke:none" transform="matrix(1.33333 0 0 -1.33333 106.667 168)"/><path d="M0 0a6 6 0 1 0-12 0A6 6 0 0 0 0 0" style="fill:#bfbfbf;fill-opacity:1;fill-rule:nonzero;stroke:none" transform="matrix(1.33333 0 0 -1.33333 101.333 168)"/><path d="M0 0a6 6 0 1 1 0-12A6 6 0 0 1 0 0m0-1.292A4.713 4.713 0 0 0 4.708-6 4.713 4.713 0 0 0 0-10.708 4.713 4.713 0 0 0-4.708-6 4.713 4.713 0 0 0 0-1.292" style="fill:#d9d9d9;fill-opacity:1;fill-rule:nonzero;stroke:none" transform="matrix(1.33333 0 0 -1.33333 93.333 160)"/><path d="M0 0c0-5.523-4.477-10-10-10S-20-5.523-20 0s4.477 10 10 10S0 5.523 0 0" style="fill:#191919;fill-opacity:1;fill-rule:nonzero;stroke:none" transform="matrix(1.33333 0 0 -1.33333 176.516 168.172)"/><path d="M0 0c0-5.523-4.477-10-10-10S-20-5.523-20 0s4.477 10 10 10S0 5.523 0 0" style="fill:#191919;fill-opacity:1;fill-rule:nonzero;stroke:none" transform="matrix(1.33333 0 0 -1.33333 213.333 168.172)"/><path d="M0 0c0-5.523-4.477-10-10-10S-20-5.523-20 0s4.477 10 10 10S0 5.523 0 0" style="fill:#191919;fill-opacity:1;fill-rule:nonzero;stroke:none" transform="matrix(1.33333 0 0 -1.33333 250.15 168.172)"/><path d="M314.667 144h-37.334v-5.333h37.334z" style="fill:#999;fill-opacity:1;fill-rule:nonzero;stroke:none;stroke-width:1.33333325"/><path d="M314.667 149.333h-37.334V144h37.334z" style="fill:gray;fill-opacity:1;fill-rule:nonzero;stroke:none;stroke-width:1.33333325"/><path d="M0 0h2.775v5.04h1.619L6.784 8H3.855L1.388 5.04l-.54.4L2.93 8H0Z" style="fill:#999;fill-opacity:1;fill-rule:nonzero;stroke:none" transform="matrix(1.33333 0 0 -1.33333 245.333 149.33)"/><path d="M0 0h3.753v6.354h2.189l3.232 3.732H5.213L1.877 6.354l-.73.504 2.815 3.228H0Z" style="fill:#999;fill-opacity:1;fill-rule:nonzero;stroke:none" transform="matrix(1.33333 0 0 -1.33333 222.435 149.154)"/><path d="M0 0c.481.567 1.201.175 1.201.175l-1.31-1.419S-.48-.567 0 0m4.174 1.247C4.038 1.095 2.333-.81 1.725-1.418 1.092-2.051.59-1.789.59-1.789l3.263 3.512C3.119 2.616 2.051 3.22.805 3.22c-2.209 0-4-1.789-4-3.997a4 4 0 0 1 4-3.997c2.209 0 4 1.79 4 3.997 0 .756-.267 1.422-.631 2.024" style="fill:#999;fill-opacity:1;fill-rule:nonzero;stroke:none" transform="matrix(1.33333 0 0 -1.33333 233.594 142.968)"/><path d="M0 0c.481.567 1.201.175 1.201.175l-1.31-1.419S-.48-.567 0 0m4.174 1.247C4.038 1.095 2.333-.81 1.725-1.418 1.092-2.051.59-1.789.59-1.789l3.263 3.512C3.119 2.616 2.051 3.22.805 3.22c-2.209 0-4-1.789-4-3.997a4 4 0 0 1 4-3.997c2.209 0 4 1.79 4 3.997 0 .756-.267 1.422-.631 2.024" style="fill:#999;fill-opacity:1;fill-rule:nonzero;stroke:none" transform="matrix(1.33333 0 0 -1.33333 256.927 142.96)"/><path d="M0 0c.21-.059 6.2 6.407 6.2 6.407v-3.78h4.005L7.419-.247H6.243v-7.211h-2.83v6.932l1.481 1.795-.305.309L2.775-.191H-.287z" style="fill:#999;fill-opacity:1;fill-rule:nonzero;stroke:none" transform="matrix(1.33333 0 0 -1.33333 235.954 139.389)"/><path d="M0 0h6.043l-2-2.591.383-.287L6.723 0H10L6.638-4 10-8H4.043l1.914 2.359-.354.361S3.404-8.024 3.333-8 .099-8 .099-8l3.263 4z" style="fill:#999;fill-opacity:1;fill-rule:nonzero;stroke:none" transform="matrix(1.33333 0 0 -1.33333 261.333 138.663)"/></svg>

<?xml version="1.0" encoding="UTF-8" standalone="no"?>
<svg
   xmlns:dc="http://purl.org/dc/elements/1.1/"
   xmlns:cc="http://creativecommons.org/ns#"
   xmlns:rdf="http://www.w3.org/1999/02/22-rdf-syntax-ns#"
   xmlns:svg="http://www.w3.org/2000/svg"
   xmlns="http://www.w3.org/2000/svg"
   xmlns:sodipodi="http://sodipodi.sourceforge.net/DTD/sodipodi-0.dtd"
   xmlns:inkscape="http://www.inkscape.org/namespaces/inkscape"
   viewBox="0 0 341.33334 341.33334"
   height="256"
   width="256"
   xml:space="preserve"
   id="svg2"
   version="1.1"
   sodipodi:docname="GCE - Vectrex.svg"
   inkscape:version="0.92.2 (5c3e80d, 2017-08-06)"><sodipodi:namedview
     pagecolor="#ffffff"
     bordercolor="#666666"
     borderopacity="1"
     objecttolerance="10"
     gridtolerance="10"
     guidetolerance="10"
     inkscape:pageopacity="0"
     inkscape:pageshadow="2"
     inkscape:window-width="1024"
     inkscape:window-height="705"
     id="namedview50"
     showgrid="false"
     inkscape:pagecheckerboard="true"
     inkscape:zoom="1.3828125"
     inkscape:cx="135.44778"
     inkscape:cy="258.05565"
     inkscape:window-x="-8"
     inkscape:window-y="-8"
     inkscape:window-maximized="1"
     inkscape:current-layer="svg2" /><metadata
     id="metadata8"><rdf:RDF><cc:Work
         rdf:about=""><dc:format>image/svg+xml</dc:format><dc:type
           rdf:resource="http://purl.org/dc/dcmitype/StillImage" /><dc:title /></cc:Work></rdf:RDF></metadata><defs
     id="defs6"><clipPath
       id="clipPath18"
       clipPathUnits="userSpaceOnUse"><path
         id="path16"
         d="M 0,256 H 256 V 0 H 0 Z" /></clipPath></defs><g
     id="g20"
     transform="matrix(1.3333333,0,0,-1.3333333,20.989199,109.9048)"><path
       inkscape:connector-curvature="0"
       d="m 0,0 h 224.516 c 2.067,0 3.742,-1.7 3.742,-3.798 v -83.547 c 0,-2.098 -1.675,-3.798 -3.742,-3.798 H 0 c -2.067,0 -3.742,1.7 -3.742,3.798 V -3.798 C -3.742,-1.7 -2.067,0 0,0"
       style="fill:#191919;fill-opacity:1;fill-rule:nonzero;stroke:none"
       id="path22" /></g><g
     id="g24"
     transform="matrix(1.3333333,0,0,-1.3333333,31.632133,128)"
     style="fill:#4d4d4d"><path
       inkscape:connector-curvature="0"
       d="m 0,0 h 208.552 c 2.057,0 3.724,-1.686 3.724,-3.765 v -56.47 c 0,-2.079 -1.667,-3.765 -3.724,-3.765 H 0 c -2.057,0 -3.724,1.686 -3.724,3.765 v 56.47 C -3.724,-1.686 -2.057,0 0,0"
       style="fill:#4d4d4d;fill-opacity:1;fill-rule:nonzero;stroke:none"
       id="path26" /></g><path
     inkscape:connector-curvature="0"
     d="M 314.66666,197.33333 H 26.666666 V 192 H 314.66666 Z"
     style="fill:#999999;fill-opacity:1;fill-rule:nonzero;stroke:none;stroke-width:1.33333325"
     id="path28" /><path
     inkscape:connector-curvature="0"
     d="M 314.66666,202.66667 H 26.666666 v -5.33334 H 314.66666 Z"
     style="fill:#808080;fill-opacity:1;fill-rule:nonzero;stroke:none;stroke-width:1.33333325"
     id="path30" /><g
     id="g32"
     transform="matrix(1.3333333,0,0,-1.3333333,197.33333,111.99974)"><path
       inkscape:connector-curvature="0"
       d="m 0,0 h -24 v -17.821 h 0.022 C -23.979,-17.882 -24,-17.939 -24,-18 c 0,-5.523 5.373,-10 12,-10 6.627,0 12,4.477 12,10 0,0.061 -0.02,0.118 -0.022,0.179 H 0 Z"
       style="fill:#0d0d0d;fill-opacity:1;fill-rule:nonzero;stroke:none"
       id="path34" /></g><g
     id="g36"
     transform="matrix(1.3333333,0,0,-1.3333333,286.96773,168.17213)"><path
       inkscape:connector-curvature="0"
       d="m 0,0 c 0,-5.523 -4.477,-10 -10,-10 -5.523,0 -10,4.477 -10,10 0,5.523 4.477,10 10,10 C -4.477,10 0,5.523 0,0"
       style="fill:#191919;fill-opacity:1;fill-rule:nonzero;stroke:none"
       id="path38" /></g><g
     id="g40"
     transform="matrix(1.3333333,0,0,-1.3333333,120,168.17213)"><path
       inkscape:connector-curvature="0"
       d="m 0,0 c 0,-11.046 -8.954,-20 -20,-20 -11.046,0 -20,8.954 -20,20 0,11.046 8.954,20 20,20 C -8.954,20 0,11.046 0,0"
       style="fill:#191919;fill-opacity:1;fill-rule:nonzero;stroke:none"
       id="path42" /></g><g
     id="g44"
     transform="matrix(1.3333333,0,0,-1.3333333,112,168)"
     style="fill:#4d4d4d"><path
       inkscape:connector-curvature="0"
       d="m 0,0 c 0,-7.732 -6.268,-14 -14,-14 -7.732,0 -14,6.268 -14,14 0,7.732 6.268,14 14,14 C -6.268,14 0,7.732 0,0"
       style="fill:#4d4d4d;fill-opacity:1;fill-rule:nonzero;stroke:none"
       id="path46" /></g><g
     id="g48"
     transform="matrix(1.3333333,0,0,-1.3333333,106.66666,168)"><path
       inkscape:connector-curvature="0"
       d="m 0,0 c 0,-5.523 -4.477,-10 -10,-10 -5.523,0 -10,4.477 -10,10 0,5.523 4.477,10 10,10 C -4.477,10 0,5.523 0,0"
       style="fill:#191919;fill-opacity:1;fill-rule:nonzero;stroke:none"
       id="path50" /></g><g
     id="g52"
     transform="matrix(1.3333333,0,0,-1.3333333,101.33333,168)"><path
       inkscape:connector-curvature="0"
       d="m 0,0 c 0,-3.314 -2.686,-6 -6,-6 -3.314,0 -6,2.686 -6,6 0,3.314 2.686,6 6,6 3.314,0 6,-2.686 6,-6"
       style="fill:#bfbfbf;fill-opacity:1;fill-rule:nonzero;stroke:none"
       id="path54" /></g><g
     id="g56"
     transform="matrix(1.3333333,0,0,-1.3333333,93.333331,160)"><path
       inkscape:connector-curvature="0"
       d="m 0,0 c -3.314,0 -6,-2.686 -6,-6 0,-3.314 2.686,-6 6,-6 3.314,0 6,2.686 6,6 0,3.314 -2.686,6 -6,6 m 0,-1.292 c 2.596,0 4.708,-2.112 4.708,-4.708 0,-2.596 -2.112,-4.708 -4.708,-4.708 -2.596,0 -4.708,2.112 -4.708,4.708 0,2.596 2.112,4.708 4.708,4.708"
       style="fill:#d9d9d9;fill-opacity:1;fill-rule:nonzero;stroke:none"
       id="path58" /></g><g
     id="g60"
     transform="matrix(1.3333333,0,0,-1.3333333,176.51613,168.17213)"><path
       inkscape:connector-curvature="0"
       d="m 0,0 c 0,-5.523 -4.477,-10 -10,-10 -5.523,0 -10,4.477 -10,10 0,5.523 4.477,10 10,10 C -4.477,10 0,5.523 0,0"
       style="fill:#191919;fill-opacity:1;fill-rule:nonzero;stroke:none"
       id="path62" /></g><g
     id="g64"
     transform="matrix(1.3333333,0,0,-1.3333333,213.33333,168.17213)"><path
       inkscape:connector-curvature="0"
       d="m 0,0 c 0,-5.523 -4.477,-10 -10,-10 -5.523,0 -10,4.477 -10,10 0,5.523 4.477,10 10,10 C -4.477,10 0,5.523 0,0"
       style="fill:#191919;fill-opacity:1;fill-rule:nonzero;stroke:none"
       id="path66" /></g><g
     id="g68"
     transform="matrix(1.3333333,0,0,-1.3333333,250.15053,168.17213)"><path
       inkscape:connector-curvature="0"
       d="m 0,0 c 0,-5.523 -4.477,-10 -10,-10 -5.523,0 -10,4.477 -10,10 0,5.523 4.477,10 10,10 C -4.477,10 0,5.523 0,0"
       style="fill:#191919;fill-opacity:1;fill-rule:nonzero;stroke:none"
       id="path70" /></g><path
     inkscape:connector-curvature="0"
     d="m 314.66666,144 h -37.33333 v -5.33333 h 37.33333 z"
     style="fill:#999999;fill-opacity:1;fill-rule:nonzero;stroke:none;stroke-width:1.33333325"
     id="path72" /><path
     inkscape:connector-curvature="0"
     d="M 314.66666,149.33333 H 277.33333 V 144 h 37.33333 z"
     style="fill:#808080;fill-opacity:1;fill-rule:nonzero;stroke:none;stroke-width:1.33333325"
     id="path74" /><g
     id="g76"
     transform="matrix(1.3333333,0,0,-1.3333333,245.33333,149.32933)"><path
       inkscape:connector-curvature="0"
       d="M 0,0 H 2.775 V 5.04 H 4.394 L 6.784,8 H 3.855 L 1.388,5.04 0.848,5.44 2.93,8 H 0 Z"
       style="fill:#999999;fill-opacity:1;fill-rule:nonzero;stroke:none"
       id="path78" /></g><g
     id="g80"
     transform="matrix(1.3333333,0,0,-1.3333333,222.43453,149.154)"><path
       inkscape:connector-curvature="0"
       d="m 0,0 h 3.753 v 6.354 h 2.189 l 3.232,3.732 H 5.213 L 1.877,6.354 1.147,6.858 3.962,10.086 H 0 Z"
       style="fill:#999999;fill-opacity:1;fill-rule:nonzero;stroke:none"
       id="path82" /></g><g
     id="g84"
     transform="matrix(1.3333333,0,0,-1.3333333,233.59386,142.968)"><path
       inkscape:connector-curvature="0"
       d="m 0,0 c 0.481,0.567 1.201,0.175 1.201,0.175 l -1.31,-1.419 c 0,0 -0.371,0.677 0.109,1.244 M 4.174,1.247 C 4.038,1.095 2.333,-0.81 1.725,-1.418 1.092,-2.051 0.59,-1.789 0.59,-1.789 L 3.853,1.723 C 3.119,2.616 2.051,3.22 0.805,3.22 c -2.209,0 -4,-1.789 -4,-3.997 0,-2.207 1.791,-3.997 4,-3.997 2.209,0 4,1.79 4,3.997 0,0.756 -0.267,1.422 -0.631,2.024"
       style="fill:#999999;fill-opacity:1;fill-rule:nonzero;stroke:none"
       id="path86" /></g><g
     id="g88"
     transform="matrix(1.3333333,0,0,-1.3333333,256.92719,142.95987)"><path
       inkscape:connector-curvature="0"
       d="m 0,0 c 0.481,0.567 1.201,0.175 1.201,0.175 l -1.31,-1.419 c 0,0 -0.371,0.677 0.109,1.244 M 4.174,1.247 C 4.038,1.095 2.333,-0.81 1.725,-1.418 1.092,-2.051 0.59,-1.789 0.59,-1.789 L 3.853,1.723 C 3.119,2.616 2.051,3.22 0.805,3.22 c -2.209,0 -4,-1.789 -4,-3.997 0,-2.207 1.791,-3.997 4,-3.997 2.209,0 4,1.79 4,3.997 0,0.756 -0.267,1.422 -0.631,2.024"
       style="fill:#999999;fill-opacity:1;fill-rule:nonzero;stroke:none"
       id="path90" /></g><g
     id="g92"
     transform="matrix(1.3333333,0,0,-1.3333333,235.95359,139.38894)"><path
       inkscape:connector-curvature="0"
       d="m 0,0 c 0.21,-0.059 6.2,6.407 6.2,6.407 v -3.78 h 4.005 L 7.419,-0.247 H 6.243 v -7.211 h -2.83 v 6.932 L 4.894,1.269 4.589,1.578 2.775,-0.191 h -3.062 z"
       style="fill:#999999;fill-opacity:1;fill-rule:nonzero;stroke:none"
       id="path94" /></g><g
     id="g96"
     transform="matrix(1.3333333,0,0,-1.3333333,261.33333,138.66267)"><path
       inkscape:connector-curvature="0"
       d="m 0,0 h 6.043 l -2,-2.591 L 4.426,-2.878 6.723,0 H 10 L 6.638,-4 10,-8 H 4.043 l 1.914,2.359 -0.354,0.361 c 0,0 -2.199,-2.744 -2.27,-2.72 -0.071,0.025 -3.234,0 -3.234,0 l 3.263,4 z"
       style="fill:#999999;fill-opacity:1;fill-rule:nonzero;stroke:none"
       id="path98" /></g></svg>
